X:1
T:Maulbron, 87.87 D
T:Maulbron, 87.87 D
T:Thoro Harris, 1906
T:Public Domain Courtesy of the Cyber Hymnal™
C:Thoro Harris, 1906
Z:Public Domain
Z:Courtesy of the Cyber Hymnal™
%%score ( 1 2 ) ( 3 4 )
L:1/8
Q:1/4=98
M:6/8
K:C
V:1 treble 
V:2 treble 
V:3 bass 
V:4 bass 
V:1
 [EG][EG][EG] [FG][FA][FB] | [Ec]3 [EG]3 | [FA][FA][FA] [Ac][GB][FA] | [EG]3- [EG]2 z | %4
 [DG][B,D][CE] [DF][EG][DF] | [CE]3 [Ec]3 | [DB][DB][DB] [^Fd][Fc][FA] | G3- G2 z | %8
 [Fd][Fd]>[Fd] [Fd][Ge][Fd] | [Ec]3 [EG]3 | [FA][FA][FA] [^FA][FB][Fc] | [Fd]3- [Fd]2 z | %12
 [Ge][Fd][Ec] [Ac][GB][FA] | [EG]3 [Ec]3 | [DB][DB]>[DB] [DB][Ec]!fermata![Fd] | [Ec]3- [Ec]2 z |] %16
V:2
 x6 | x6 | x6 | x6 | x6 | x6 | x6 | G3- G2 x | x6 | x6 | x6 | x6 | x6 | x6 | x6 | x6 |] %16
V:3
 [C,C][C,C][C,C] [G,B,][G,C][G,D] | [C,C]3 [C,C]3 | [F,C][F,C][F,C] [F,C][F,C][F,C] | %3
 [C,C]3- [C,C]2 z | [G,,B,][G,,G,][G,,G,] [G,,G,][G,,G,][G,,G,] | [C,G,]3 [C,G,]3 | %6
 [D,B,][D,A,][D,G,] [D,A,][D,A,][D,C] | [G,B,]3- [G,B,]2 z | %8
 [G,B,][G,B,]>[G,B,] [G,B,][G,A,][G,B,] | [C,C]3 [C,C]3 | [F,C][F,C][F,C] [F,C][D,B,][D,A,] | %11
 [G,B,]3- [G,B,]2 z | [C,C][C,C][C,C] [F,C][F,C][F,C] | [C,C]3 [C,G,]3 | %14
 G,G,>G, [G,,G,][G,,G,]!fermata![G,,G,] | [C,G,]3- [C,G,]2 z |] %16
V:4
 x6 | x6 | x6 | x6 | x6 | x6 | x6 | x6 | x6 | x6 | x6 | x6 | x6 | x6 | G,G,>G, x3 | x6 |] %16

